X:1
T:Otto Wood the Bandit
M:2/2
L:1/8
K:A
 A, C3 EEE-F EE CC|B,-A, A,2
M:3/2
| DDD D D2 EE F2 DD| E8 z4| z2 z EA AA AA A F2| A2 E2 C3 A, C2 CC|\
 B,2 A,A, C2C-B,
M:2/2
| A,8| z8| z4 z2 A,2| A,2 CC E2| EF| E2C-B, A,2 A,2|
M:3/2
 DDD DD DE E F2 D2|
M:2/2
 E8| z4 z2 E2| A2 AA A2 FF| AFE E C3- C/2A,/2| C C2 C B,2 A,2| C2 B,2 A,4|\
 C2 E4 F2| EE C2 B,- A,3|
M:3/2
 D2 D4| F2F-ED-E|
M:2/2
 E8| z8| A2 A4 c2| cB A2A-G EE| CC C2 B,2 A,2| CC B,2
M:2/2
| A,6||
